images/social/skype.svg

<svg xmlns="http://www.w3.org/2000/svg" width="219.74" height="219.79" viewBox="0 0 219.74 219.79"><defs><style>.a{fill:#fff;}</style></defs><title>skype</title><path class="a" d="M34.16,6.4A62.53,62.53,0,0,1,83.32,4c3.73,1,6.83,4.36,10.85,3.78a105.88,105.88,0,0,1,31-.08c33.14,4.55,63.05,26.62,77.66,56.64a103.27,103.27,0,0,1,9,63.57c7.2,12.32,9.37,27.1,7.21,41.1a61.42,61.42,0,0,1-28.94,42.15c-18.54,11.45-43.39,11.65-62.19.66-32.56,6-67.86-4.94-91-28.75-23.81-23.07-34.8-58.34-28.8-90.88C.62,79.24-1.51,63.6,1.29,49A61.6,61.6,0,0,1,34.16,6.4M93.68,44.91a57.7,57.7,0,0,0-18.36,6.38C66.83,56,60.2,64.27,58.46,73.91c-1.73,9.19-1,19.36,4.31,27.34,5,7.34,13.18,11.71,21.46,14.33,11.17,3.07,22.44,5.78,33.68,8.59,4.4,1.1,9.09,2.21,12.54,5.36,3.14,3.19,4.79,8.19,3,12.47-1.91,6-7.47,10.1-13.28,12a36.44,36.44,0,0,1-26.07-2.09c-6.46-3.39-10.18-9.88-14.71-15.28-4.93-6.24-15.88-6.13-20.5.43-3.39,4.32-2.42,10.41-.36,15.11,4.51,9.72,14,16.1,23.79,19.71,14.93,5.19,31.3,5.7,46.73,2.56,10.16-2.32,20.26-7.23,26.68-15.69,7.65-9.67,9.41-23.29,5.68-34.9-2.43-8-8.61-14.42-15.84-18.39-9-5.2-19.5-6.45-29.45-8.85-8-2-16.44-3.06-23.89-6.84-4.47-2.18-7.71-7.46-6-12.45,1.43-6.44,7.75-10.42,14-11.2,10.07-1.62,21.7,0,29,7.74,3.84,3.5,6.76,8.47,12,10.07,5.49,1.38,12.14-.49,15.23-5.46,1.78-2.7,1.38-6.15.94-9.18-1.92-7-7.55-12.33-13.66-15.89C128.81,44.43,110.63,41.86,93.68,44.91Z" transform="translate(-0.11 -0.06)"/></svg>

<?xml version="1.0" encoding="UTF-8" ?>
<!DOCTYPE svg PUBLIC "-//W3C//DTD SVG 1.1//EN" "http://www.w3.org/Graphics/SVG/1.1/DTD/svg11.dtd">
<svg width="220pt" height="220pt" viewBox="0 0 220 220" version="1.1" xmlns="http://www.w3.org/2000/svg">
<g>
<path fill="#fff" opacity="1.00" d=" M 34.16 6.40 C 49.25 -1.18 67.54 -1.91 83.32 3.95 C 87.05 4.91 90.15 8.31 94.17 7.73 C 104.42 6.22 114.91 6.12 125.16 7.65 C 158.30 12.20 188.21 34.27 202.82 64.29 C 212.49 83.80 215.68 106.44 211.84 127.86 C 219.04 140.18 221.21 154.96 219.05 168.96 C 216.08 186.30 205.32 202.20 190.11 211.11 C 171.57 222.56 146.72 222.76 127.92 211.77 C 95.36 217.81 60.06 206.83 36.96 183.02 C 13.15 159.95 2.16 124.68 8.16 92.14 C 0.62 79.24 -1.51 63.60 1.29 49.02 C 4.96 30.77 17.42 14.57 34.16 6.40 M 93.68 44.91 C 87.29 46.12 80.97 48.01 75.32 51.29 C 66.83 55.97 60.20 64.27 58.46 73.91 C 56.73 83.10 57.50 93.27 62.77 101.25 C 67.75 108.59 75.95 112.96 84.23 115.58 C 95.40 118.65 106.67 121.36 117.91 124.17 C 122.31 125.27 127.00 126.38 130.45 129.53 C 133.59 132.72 135.24 137.72 133.46 142.00 C 131.55 148.03 125.99 152.10 120.18 153.96 C 111.64 156.41 102.10 155.87 94.11 151.87 C 87.65 148.48 83.93 141.99 79.40 136.59 C 74.47 130.35 63.52 130.46 58.90 137.02 C 55.51 141.34 56.48 147.43 58.54 152.13 C 63.05 161.85 72.54 168.23 82.33 171.84 C 97.26 177.03 113.63 177.54 129.06 174.40 C 139.22 172.08 149.32 167.17 155.74 158.71 C 163.39 149.04 165.15 135.42 161.42 123.81 C 158.99 115.80 152.81 109.39 145.58 105.42 C 136.57 100.22 126.08 98.97 116.13 96.57 C 108.11 94.57 99.69 93.51 92.24 89.73 C 87.77 87.55 84.53 82.27 86.20 77.28 C 87.63 70.84 93.95 66.86 100.16 66.08 C 110.23 64.46 121.86 66.13 129.19 73.82 C 133.03 77.32 135.95 82.29 141.17 83.89 C 146.66 85.27 153.31 83.40 156.40 78.43 C 158.18 75.73 157.78 72.28 157.34 69.25 C 155.42 62.25 149.79 56.92 143.68 53.36 C 128.81 44.43 110.63 41.86 93.68 44.91 Z" />
</g>
</svg>
